argon/symbolic/status/weather-fog-symbolic.svg

<?xml version="1.0" encoding="UTF-8" standalone="no"?>
<svg
   height="16"
   width="16"
   version="1.1"
   id="svg4"
   sodipodi:docname="weather-fog-symbolic.svg"
   inkscape:version="1.4.2 (ebf0e940d0, 2025-05-08)"
   xmlns:inkscape="http://www.inkscape.org/namespaces/inkscape"
   xmlns:sodipodi="http://sodipodi.sourceforge.net/DTD/sodipodi-0.dtd"
   xmlns="http://www.w3.org/2000/svg"
   xmlns:svg="http://www.w3.org/2000/svg">
  <defs
     id="defs8" />
  <sodipodi:namedview
     pagecolor="#333333"
     bordercolor="#666666"
     borderopacity="1"
     objecttolerance="10"
     gridtolerance="10"
     guidetolerance="10"
     inkscape:pageopacity="0"
     inkscape:pageshadow="2"
     inkscape:window-width="1920"
     inkscape:window-height="1011"
     id="namedview6"
     showgrid="false"
     inkscape:zoom="26.9375"
     inkscape:cx="8.8723898"
     inkscape:cy="11.396752"
     inkscape:window-x="0"
     inkscape:window-y="0"
     inkscape:window-maximized="1"
     inkscape:current-layer="layer1"
     inkscape:document-rotation="0"
     inkscape:showpageshadow="2"
     inkscape:pagecheckerboard="0"
     inkscape:deskcolor="#d1d1d1" />
  <g
     inkscape:groupmode="layer"
     id="layer1"
     inkscape:label="Icon">
    <g
       id="g867"
       style="fill:#000000">
      <path
         id="path834"
         style="line-height:normal;-inkscape-font-specification:sans-serif;text-indent:0;text-align:start;text-decoration-line:none;text-transform:none;fill:#000000;stroke-width:0.999999;marker:none"
         d="m 0,11 v 1 h 7.7158551 v -1 z m 0.00195289,2 v 1 H 16 v -1 z m 0,2 v 1 H 16 v -1 z" />
      <path
         id="path2-5"
         style="line-height:normal;-inkscape-font-specification:sans-serif;text-indent:0;text-align:start;text-decoration:none;text-decoration-line:none;text-transform:none;fill:#000000;marker:none"
         d="m 8.640625,0.6679688 c -2.158,0.002 -3.9931406,1.3314218 -4.8691406,3.2324218 l -0.060547,0.1289063 -0.1386719,0.00977 C 1.5782656,4.1830625 0,5.9098125 0,8.0078128 0,10.200813 1.7158906,12 3.8378906,12 H 13.121094 C 14.713095,12 16,10.649719 16,9.0117188 a 2.958,2.958 0 0 0 -1.804687,-2.734375 l -0.136719,-0.058594 -0.0098,-0.1484375 c -0.135,-2.993 -2.487297,-5.4003437 -5.4042968,-5.4023437 z" />
    </g>
  </g>
</svg>

<?xml version="1.0" encoding="UTF-8" standalone="no"?>
<svg
   height="16"
   width="16.002"
   version="1.1"
   id="svg4"
   sodipodi:docname="weather-fog-symbolic.symbolic.svg"
   xmlns:inkscape="http://www.inkscape.org/namespaces/inkscape"
   xmlns:sodipodi="http://sodipodi.sourceforge.net/DTD/sodipodi-0.dtd"
   xmlns="http://www.w3.org/2000/svg"
   xmlns:svg="http://www.w3.org/2000/svg">
  <defs
     id="defs8" />
  <sodipodi:namedview
     pagecolor="#333333"
     bordercolor="#666666"
     borderopacity="1"
     objecttolerance="10"
     gridtolerance="10"
     guidetolerance="10"
     inkscape:pageopacity="0"
     inkscape:pageshadow="2"
     inkscape:window-width="1836"
     inkscape:window-height="1016"
     id="namedview6"
     showgrid="false"
     inkscape:zoom="26.9375"
     inkscape:cx="11.104248"
     inkscape:cy="8.7473218"
     inkscape:window-x="2004"
     inkscape:window-y="27"
     inkscape:window-maximized="1"
     inkscape:current-layer="layer1"
     inkscape:document-rotation="0"
     inkscape:showpageshadow="2"
     inkscape:pagecheckerboard="0"
     inkscape:deskcolor="#d1d1d1" />
  <g
     inkscape:groupmode="layer"
     id="layer1"
     inkscape:label="Icon">
    <g
       id="g867"
       style="fill:#000000">
      <path
         id="path834"
         style="line-height:normal;-inkscape-font-specification:sans-serif;text-indent:0;text-align:start;text-decoration-line:none;text-transform:none;marker:none;fill:#000000"
         d="M 0 11 L 0 12 L 7.7167969 12 L 7.7167969 11 L 0 11 z M 0.001953125 13 L 0.001953125 14 L 16.001953 14 L 16.001953 13 L 0.001953125 13 z M 0.001953125 15 L 0.001953125 16 L 16.001953 16 L 16.001953 15 L 0.001953125 15 z " />
      <path
         id="path2-5"
         style="line-height:normal;-inkscape-font-specification:sans-serif;text-indent:0;text-align:start;text-decoration:none;text-decoration-line:none;text-transform:none;fill:#000000;marker:none"
         d="m 8.6425782,0.6679688 c -2.158,0.002 -3.9931406,1.3314218 -4.8691406,3.2324218 l -0.060547,0.1289063 -0.1386719,0.00977 C 1.5802188,4.1830625 0.0019532,5.9098125 0.0019532,8.0078128 0.0019532,10.200813 1.7178438,12 3.8398438,12 h 9.2832032 c 1.592001,0 2.878906,-1.350281 2.878906,-2.9882812 a 2.958,2.958 0 0 0 -1.804687,-2.734375 l -0.136719,-0.058594 -0.0098,-0.1484375 C 13.915747,3.0773123 11.56345,0.6699686 8.6464504,0.6679686 Z" />
    </g>
  </g>
</svg>
